assets/features/logging.svg

<?xml version="1.0" encoding="UTF-8"?>
<svg width="256px" height="256px" viewBox="0 0 256 256" version="1.1" xmlns="http://www.w3.org/2000/svg" xmlns:xlink="http://www.w3.org/1999/xlink">
    <!-- Generator: Sketch 49.2 (51160) - http://www.bohemiancoding.com/sketch -->
    <title>Logging</title>
    <desc>Created with Sketch.</desc>
    <defs></defs>
    <g id="logging-copy" stroke="none" stroke-width="1" fill="none" fill-rule="evenodd">
        <path d="M54.7624187,215.847916 C38.8976027,215.848048 26.5,203.746473 26.5,188.320632 C26.5,176.313911 34.0443969,165.828694 44.9481666,161.887809 C46.5517475,153.373846 53.9835641,146.945632 62.8979821,146.945632 C65.3873081,146.945632 67.8038518,147.449928 70.0287074,148.399642 C75.8645078,139.192562 86.0214707,133.375 97.2309417,133.375 C113.417659,133.375 126.826572,145.396998 129.152085,161.080739 C129.406259,161.073696 129.660888,161.070167 129.915919,161.070167 C145.01981,161.070167 157.25,173.402236 157.25,188.597584 C157.25,203.792931 145.01981,216.125 129.915919,216.125 C129.336502,216.125 128.758975,216.106785 128.183931,216.070491 C128.106937,216.071903 123.610812,216.034989 114.695556,215.959751 L101.746033,215.959751 L98.1922646,215.959751 L54.7624187,215.847916 Z M101.746033,207.709751 L114.7308,207.709901 L127.90767,207.822488 C127.954214,207.822886 128.097506,207.819231 128.337547,207.811522 C129.00814,207.858989 129.460896,207.875 129.915919,207.875 C140.448071,207.875 149,199.251832 149,188.597584 C149,177.943336 140.448071,169.320167 129.915919,169.320167 C128.65227,169.320167 127.406703,169.44365 126.190112,169.686555 L121.308254,170.661266 L121.257668,165.683311 C121.122219,152.354301 110.397831,141.625 97.2309417,141.625 C87.7495849,141.625 79.2700776,147.232898 75.3796912,155.810284 L73.2005837,160.614703 L69.0634884,157.341266 C67.3136369,155.956712 65.1681772,155.195632 62.8979821,155.195632 C57.4488011,155.195632 52.9902475,159.606785 52.8799084,165.122866 L52.8165013,168.292723 L49.7370286,169.04695 C41.0131018,171.183622 34.75,179.113253 34.75,188.320632 C34.75,199.144904 43.4099245,207.598048 54.3834081,207.598048 C54.6607751,207.597409 54.7319106,207.597409 54.8052716,207.59806 L100.124778,207.706475 L101.746033,207.709751 Z M115.625,73.5 L115.625,66 L187.69473,66 L187.69473,73.5 L115.625,73.5 Z M116.625,138 L116.625,130.5 L158.139703,130.5 L158.139703,138 L116.625,138 Z M166.095418,138 L166.095418,130.5 L211.639703,130.5 L211.639703,138 L166.095418,138 Z M116.625,116.5 L116.625,109 L158.139703,109 L158.139703,116.5 L116.625,116.5 Z M166.095418,116.5 L166.095418,109 L211.639703,109 L211.639703,116.5 L166.095418,116.5 Z M115.625,95 L115.625,87.5 L157.139703,87.5 L157.139703,95 L115.625,95 Z M166.095418,95 L166.095418,87.5 L211.639703,87.5 L211.639703,95 L166.095418,95 Z M166.095418,159.5 L166.095418,152 L211.639703,152 L211.639703,159.5 L166.095418,159.5 Z M222.125,188.5 L222.125,47 L105.625,47 L105.625,138 L98.125,138 L98.125,42 C98.125,40.6192881 99.2442881,39.5 100.625,39.5 L227.125,39.5 C228.505712,39.5 229.625,40.6192881 229.625,42 L229.625,193.5 C229.625,194.880712 228.505712,196 227.125,196 L152.125,196 L152.125,188.5 L222.125,188.5 Z" id="Combined-Shape" fill="#689BFF" fill-rule="nonzero"></path>
        <g id="Group-2" transform="translate(16.000000, 136.500000)"></g>
    </g>
</svg>

<?xml version="1.0" encoding="UTF-8" standalone="no"?>
<svg
   xmlns:dc="http://purl.org/dc/elements/1.1/"
   xmlns:cc="http://creativecommons.org/ns#"
   xmlns:rdf="http://www.w3.org/1999/02/22-rdf-syntax-ns#"
   xmlns:svg="http://www.w3.org/2000/svg"
   xmlns="http://www.w3.org/2000/svg"
   xmlns:sodipodi="http://sodipodi.sourceforge.net/DTD/sodipodi-0.dtd"
   xmlns:inkscape="http://www.inkscape.org/namespaces/inkscape"
   width="16"
   height="16"
   viewBox="0 0 16 16"
   version="1.1"
   id="svg11"
   sodipodi:docname="logging.svg"
   inkscape:version="0.92.3 (2405546, 2018-03-11)">
  <metadata
     id="metadata15">
    <rdf:RDF>
      <cc:Work
         rdf:about="">
        <dc:format>image/svg+xml</dc:format>
        <dc:type
           rdf:resource="http://purl.org/dc/dcmitype/StillImage" />
        <dc:title>Logging</dc:title>
      </cc:Work>
    </rdf:RDF>
  </metadata>
  <sodipodi:namedview
     pagecolor="#ffffff"
     bordercolor="#666666"
     borderopacity="1"
     objecttolerance="10"
     gridtolerance="10"
     guidetolerance="10"
     inkscape:pageopacity="0"
     inkscape:pageshadow="2"
     inkscape:window-width="2560"
     inkscape:window-height="1346"
     id="namedview13"
     showgrid="false"
     inkscape:zoom="20.85965"
     inkscape:cx="19.6363"
     inkscape:cy="8.595715"
     inkscape:window-x="-11"
     inkscape:window-y="-11"
     inkscape:window-maximized="1"
     inkscape:current-layer="svg11" />
  <!-- Generator: Sketch 49.2 (51160) - http://www.bohemiancoding.com/sketch -->
  <title
     id="title2">Logging</title>
  <desc
     id="desc4">Created with Sketch.</desc>
  <defs
     id="defs6" />
  <g
     id="logging-copy"
     style="fill:none;fill-rule:evenodd;stroke:none;stroke-width:1"
     transform="matrix(0.07876923,0,0,0.07876923,-2.0873845,-2.067691)">
    <path
       d="M 54.762419,215.84792 C 38.897603,215.84805 26.5,203.74647 26.5,188.32063 c 0,-12.00672 7.544397,-22.49194 18.448167,-26.43282 1.60358,-8.51396 9.035397,-14.94218 17.949815,-14.94218 2.489326,0 4.90587,0.5043 7.130725,1.45401 5.835801,-9.20708 15.992764,-15.02464 27.202235,-15.02464 16.186718,0 29.595628,12.022 31.921138,27.70574 0.25418,-0.007 0.50881,-0.0106 0.76384,-0.0106 15.10389,0 27.33408,12.33207 27.33408,27.52741 0,15.19535 -12.23019,27.52742 -27.33408,27.52742 -0.57942,0 -1.15695,-0.0182 -1.73199,-0.0545 -0.077,0.001 -4.57312,-0.0355 -13.48837,-0.11074 h -12.94953 -3.553765 z m 46.983611,-8.13817 12.98477,1.5e-4 13.17687,0.11259 c 0.0465,4e-4 0.18984,-0.003 0.42988,-0.011 0.67059,0.0475 1.12335,0.0635 1.57837,0.0635 10.53215,0 19.08408,-8.62317 19.08408,-19.27742 0,-10.65424 -8.55193,-19.27741 -19.08408,-19.27741 -1.26365,0 -2.50922,0.12348 -3.72581,0.36638 l -4.88186,0.97472 -0.0506,-4.97796 c -0.13543,-13.329 -10.85982,-24.0583 -24.026708,-24.0583 -9.481357,0 -17.960864,5.6079 -21.851251,14.18528 l -2.179107,4.80442 -4.137096,-3.27343 c -1.749851,-1.38456 -3.895311,-2.14564 -6.165506,-2.14564 -5.449181,0 -9.907734,4.41115 -10.018074,9.92724 l -0.06341,3.16985 -3.079472,0.75423 C 41.013102,171.18362 34.75,179.11325 34.75,188.32063 c 0,10.82427 8.659925,19.27742 19.633408,19.27742 0.277367,-6.4e-4 0.348503,-6.4e-4 0.421864,1e-5 l 45.319508,0.10841 z M 115.625,73.5 V 66 h 72.06973 v 7.5 z m 1,64.5 v -7.5 h 41.5147 v 7.5 z m 49.47042,0 v -7.5 H 211.6397 V 138 Z M 116.625,116.5 V 109 h 41.5147 v 7.5 z m 49.47042,0 V 109 h 45.54428 v 7.5 z M 115.625,95 v -7.5 h 41.5147 V 95 Z m 50.47042,0 V 87.5 H 211.6397 V 95 Z m 0,64.5 V 152 h 45.54428 v 7.5 z m 56.02958,29 V 47 h -116.5 v 91 h -7.5 V 42 c 0,-1.380712 1.119288,-2.5 2.5,-2.5 h 126.5 c 1.38071,0 2.5,1.119288 2.5,2.5 v 151.5 c 0,1.38071 -1.11929,2.5 -2.5,2.5 h -75 v -7.5 z"
       id="Combined-Shape"
       inkscape:connector-curvature="0"
       style="fill:#689bff;fill-rule:nonzero" />
    <g
       id="Group-2"
       transform="translate(16,136.5)" />
  </g>
</svg>
